icon-themes/sifr_svg/cmd/lc_linearrowend.svg

<svg viewBox="0 0 24 24" xmlns="http://www.w3.org/2000/svg"><path d="m16 8v1c0 .25689.12983.52846.3125.71875l1.302734 1.105469h-15.615234v2.351562h15.615234l-1.302734 1.105469c-.18267.19029-.3125.46186-.3125.71875v1h.414062.585938c.30945 0 .55232-.0903.75-.28125 1.41667-1.073 2.83333-2.64575 4.25-3.71875l-4.25-3.71875c-.19768-.19095-.44055-.28125-.75-.28125h-.585938z" fill="#555753"/></svg>

<svg xmlns="http://www.w3.org/2000/svg" viewBox="0 0 24 24">
 <path
     style="fill:#555753"
     d="M 16 8 L 16 9 C 16 9.25689 16.12983 9.52846 16.3125 9.71875 L 17.615234 10.824219 L 2 10.824219 L 2 13.175781 L 17.615234 13.175781 L 16.3125 14.28125 C 16.12983 14.47154 16 14.74311 16 15 L 16 16 L 16.414062 16 L 17 16 C 17.30945 16 17.55232 15.9097 17.75 15.71875 C 19.16667 14.64575 20.58333 13.073 22 12 L 17.75 8.28125 C 17.55232 8.0903 17.30945 8 17 8 L 16.414062 8 L 16 8 z "
     />
 </svg>
